public/svg/icon/arn.svg

<svg xmlns="http://www.w3.org/2000/svg" xmlns:xlink="http://www.w3.org/1999/xlink" width="32" height="32" viewBox="0 0 32 32"><defs><linearGradient id="arn-c" x1="50%" x2="50%" y1="0%" y2="100%"><stop offset="0%" stop-color="#FFF" stop-opacity=".5"/><stop offset="100%" stop-opacity=".5"/></linearGradient><circle id="arn-b" cx="16" cy="15" r="15"/><filter id="arn-a" width="111.7%" height="111.7%" x="-5.8%" y="-4.2%" filterUnits="objectBoundingBox"><feOffset dy=".5" in="SourceAlpha" result="shadowOffsetOuter1"/><feGaussianBlur in="shadowOffsetOuter1" result="shadowBlurOuter1" stdDeviation=".5"/><feComposite in="shadowBlurOuter1" in2="SourceAlpha" operator="out" result="shadowBlurOuter1"/><feColorMatrix in="shadowBlurOuter1" values="0 0 0 0 0 0 0 0 0 0 0 0 0 0 0 0 0 0 0.199473505 0"/></filter><path id="arn-e" d="M11.7594513,13.1022526 L16.0421786,5.56400534 C16.0502947,5.54972689 16.0656825,5.54090293 16.1221878,5.5645641 L20.1961955,12.9654317 C19.9762162,13.1458226 19.8362011,13.4175467 19.8362011,13.7214725 C19.8362011,14.0367981 19.9869167,14.3174611 20.2212831,14.4974233 L16.4581746,21.2846474 C16.3265675,21.2217609 16.1788255,21.1864924 16.022718,21.1864924 C15.8710497,21.1864924 15.7272778,21.2197836 15.5985276,21.2793498 L11.725118,14.3801854 C11.8849433,14.2058342 11.9822522,13.9748432 11.9822522,13.7214725 C11.9822522,13.4867913 11.8987695,13.2713099 11.7594513,13.1022526 Z M11.3504241,14.6364104 L15.2382416,21.5612375 C15.1551607,21.6649198 15.0928252,21.7854686 15.0574015,21.9168121 C11.919195,21.1654502 9.96896831,20.7003568 9.20577885,20.5213094 C8.88276846,20.0668935 8.60030131,19.5855567 8.36167282,19.0828561 L10.8536271,14.69664 C10.8961529,14.7020799 10.9395185,14.7048858 10.9835496,14.7048858 C11.1130802,14.7048858 11.2368511,14.6806038 11.3504241,14.6364104 Z M10.8113527,12.7526227 L7.72399968,7.25355121 C9.82782204,6.13457033 12.4393343,5.55005326 15.5585363,5.5 L11.3965056,12.8258029 C11.2706479,12.7694483 11.1308214,12.7380593 10.9835496,12.7380593 C10.9248292,12.7380593 10.8672924,12.7430495 10.8113527,12.7526227 Z M10.3918997,12.9291244 C10.145024,13.1081665 9.98484709,13.3964002 9.98484709,13.7214725 C9.98484709,14.0606747 10.1592513,14.3597662 10.4245778,14.5365429 L8.13504207,18.5664717 C7.75863641,17.6346827 7.52853121,16.6394701 7.46407563,15.6134625 L7.00169135,8.23094374 C6.98371514,7.94049665 7.1100011,7.6629556 7.33425146,7.48296208 L10.3918997,12.9291244 Z M16.9907972,21.9272895 C16.9570897,21.7964783 16.8967567,21.6761239 16.8158116,21.5721476 L20.634299,14.6850408 C20.699105,14.6980533 20.766194,14.7048858 20.8349037,14.7048858 C20.9375365,14.7048858 21.0365535,14.6896413 21.1297466,14.6613264 L23.6036497,19.155434 C23.3941071,19.5874417 23.152039,20.0033426 22.8795627,20.3995661 L16.9907972,21.9272895 Z M16.2495389,23.1278456 C16.6206043,23.0429915 16.9123394,22.7544771 16.9966818,22.3884043 L22.4529906,20.9728733 C21.8031674,21.7815175 21.0174539,22.4909096 20.1169344,23.0654951 L16.4939528,25.3789327 C16.4171497,25.4279574 16.33472,25.4644567 16.2495389,25.4884304 L16.2495389,23.1278456 Z M15.7958972,23.1278456 L15.7958972,25.5 C15.6945725,25.4770046 15.5963549,25.4366488 15.5059356,25.3789327 L11.8830619,23.0651758 C11.0238503,22.5169471 10.2691537,21.8459958 9.63728595,21.0832043 C10.6267313,21.3176175 12.4296941,21.7480624 15.04564,22.3744131 C15.1256959,22.7471125 15.4201171,23.0419134 15.7958972,23.1278456 Z M21.1660559,12.7934106 C21.062426,12.757558 20.9509773,12.7380593 20.8349037,12.7380593 C20.7547173,12.7380593 20.6767381,12.7473648 20.6020191,12.764939 L16.60455,5.50311197 C19.6372282,5.57031164 22.1844872,6.14852991 24.2463271,7.23776677 L21.1660559,12.7934106 Z M21.5494618,13.0344333 L24.6389336,7.46219495 C24.8798973,7.64117575 25.0170071,7.92909602 24.998305,8.23094374 L24.5359207,15.6137819 C24.4698,16.6662958 24.2293601,17.686403 23.835489,18.6388803 L21.5216281,14.4355064 C21.7137624,14.2562745 21.8336062,14.0026548 21.8336062,13.7214725 C21.8336062,13.4541271 21.7252671,13.2116983 21.5494618,13.0344333 Z M16.0000521,10.2348159 C15.7114397,10.2348159 15.4588769,10.4835967 15.4588769,10.7678263 L15.4588769,12.7224107 L12.5725369,14.4992185 L12.8819804,15.1664662 L15.4588769,14.3215483 L15.4588769,16.2760263 L14.7372379,16.8091431 L14.7372379,17.3421535 L16.0000521,16.9868133 L17.2628664,17.3421535 L17.2628664,16.8091431 L16.5412274,16.2760263 L16.5412274,14.3215483 L19.0738715,15.2114958 L19.4274594,14.4996443 L16.5412274,12.7224107 L16.5412274,10.7678263 C16.5412274,10.4835967 16.2886645,10.2348159 16.0000521,10.2348159 Z"/><filter id="arn-d" width="119.4%" height="117.5%" x="-9.7%" y="-6.2%" filterUnits="objectBoundingBox"><feOffset dy=".5" in="SourceAlpha" result="shadowOffsetOuter1"/><feGaussianBlur in="shadowOffsetOuter1" result="shadowBlurOuter1" stdDeviation=".5"/><feColorMatrix in="shadowBlurOuter1" values="0 0 0 0 0 0 0 0 0 0 0 0 0 0 0 0 0 0 0.204257246 0"/></filter></defs><g fill="none" fill-rule="evenodd"><g fill-rule="nonzero"><use fill="#000" filter="url(#arn-a)" xlink:href="#arn-b"/><use fill="#0092B5" fill-rule="evenodd" xlink:href="#arn-b"/><use fill="url(#arn-c)" fill-rule="evenodd" style="mix-blend-mode:soft-light" xlink:href="#arn-b"/><circle cx="16" cy="15" r="14.5" stroke="#000" stroke-opacity=".097"/></g><g fill-rule="nonzero"><use fill="#000" filter="url(#arn-d)" xlink:href="#arn-e"/><use fill="#FFF" fill-rule="evenodd" xlink:href="#arn-e"/></g></g></svg>

<svg xmlns="http://www.w3.org/2000/svg" xmlns:xlink="http://www.w3.org/1999/xlink" width="32" height="32" viewBox="0 0 32 32"><defs><filter id="a" width="111.7%" height="111.7%" x="-5.8%" y="-4.2%" filterUnits="objectBoundingBox"><feOffset dy=".5" in="SourceAlpha" result="shadowOffsetOuter1"/><feGaussianBlur in="shadowOffsetOuter1" result="shadowBlurOuter1" stdDeviation=".5"/><feComposite in="shadowBlurOuter1" in2="SourceAlpha" operator="out" result="shadowBlurOuter1"/><feColorMatrix in="shadowBlurOuter1" values="0 0 0 0 0 0 0 0 0 0 0 0 0 0 0 0 0 0 0.199473505 0"/></filter><filter id="d" width="119.4%" height="117.5%" x="-9.7%" y="-6.2%" filterUnits="objectBoundingBox"><feOffset dy=".5" in="SourceAlpha" result="shadowOffsetOuter1"/><feGaussianBlur in="shadowOffsetOuter1" result="shadowBlurOuter1" stdDeviation=".5"/><feColorMatrix in="shadowBlurOuter1" values="0 0 0 0 0 0 0 0 0 0 0 0 0 0 0 0 0 0 0.204257246 0"/></filter><linearGradient id="c" x1="50%" x2="50%" y1="0%" y2="100%"><stop offset="0%" stop-color="#FFF" stop-opacity=".5"/><stop offset="100%" stop-opacity=".5"/></linearGradient><circle id="b" cx="16" cy="15" r="15"/><path id="e" d="M11.76 13.102l4.282-7.538c.008-.014.024-.023.08 0l4.074 7.401a.976.976 0 00.025 1.532l-3.763 6.788a1.008 1.008 0 00-.86-.006l-3.873-6.899a.971.971 0 00.034-1.278zm-.41 1.534l3.888 6.925a.974.974 0 00-.18.356c-3.139-.752-5.089-1.217-5.852-1.396a9.556 9.556 0 01-.844-1.438l2.492-4.386a1.024 1.024 0 00.496-.06zm-.539-1.883l-3.087-5.5C9.828 6.136 12.439 5.55 15.559 5.5l-4.162 7.326a1.008 1.008 0 00-.586-.073zm-.42.176a.977.977 0 00.034 1.608l-2.29 4.03a9.464 9.464 0 01-.67-2.954l-.463-7.382a.889.889 0 01.332-.748l3.058 5.446zm6.6 8.998a.974.974 0 00-.175-.355l3.818-6.887a1.018 1.018 0 00.496-.024l2.474 4.494c-.21.432-.452.848-.724 1.245l-5.89 1.527zm-.741 1.2a.993.993 0 00.747-.739l5.456-1.415a9.661 9.661 0 01-2.336 2.092l-3.623 2.314a.914.914 0 01-.244.11v-2.361zm-.454 0V25.5a.915.915 0 01-.29-.121l-3.623-2.314a9.664 9.664 0 01-2.246-1.982c.99.235 2.793.665 5.409 1.291.08.373.374.668.75.754zm5.37-10.334a1.011 1.011 0 00-.564-.028l-3.997-7.262c3.032.067 5.58.646 7.641 1.735l-3.08 5.555zm.383.241l3.09-5.572a.89.89 0 01.36.769l-.463 7.383a9.465 9.465 0 01-.7 3.025l-2.314-4.203a.974.974 0 00.027-1.402zM16 10.234a.55.55 0 00-.541.534v1.954L12.573 14.5l.309.667 2.577-.844v1.954l-.722.533v.533L16 16.987l1.263.355v-.533l-.722-.533v-1.954l2.533.89.353-.712-2.886-1.778v-1.954a.55.55 0 00-.54-.533z"/></defs><g fill="none"><use fill="#000" filter="url(#a)" xlink:href="#b"/><use fill="#0092B5" fill-rule="evenodd" xlink:href="#b"/><use fill="url(#c)" fill-rule="evenodd" style="mix-blend-mode:soft-light" xlink:href="#b"/><circle cx="16" cy="15" r="14.5" stroke="#000" stroke-opacity=".097"/><use fill="#000" filter="url(#d)" xlink:href="#e"/><use fill="#FFF" fill-rule="evenodd" xlink:href="#e"/></g></svg>
